X: 276
T:The Conundrum
C:Peter Macleod
G:march
M:2/4
L:1/16
Q:1/4=84
K:AMix
   A>B|c2A>c  e>fc2 |A>ce>a f2e>f |a2e>f e>fc2|A>ce>c B2
   A>B|c2A>c  e>fc2 |A>ce>a f2e>f |a2e>f e>fc2|B2A2   A2:|
   f>g|a2e>f  a>ea2 |e>fa>e f2e>f |a2e>f e>fc2|A>ce>c B2
[1 f>g|a2e>f  a>ea2 |e>fa>e f2e>f |a2e>f e>fc2|B2A2   A2:|
[2 A>B|c2A>c  e>fc2 |A>ce>a f2e>f |a2e>f e>fc2|B2A2   A2||
   e2 |A>Bc2  A>Bc<A|c<eA>B c2e2  |f>ga2 e>fc2|A>ce>c B2
   e2 |A>Bc2  A>Bc<A|c<eA>B c2e2  |f>ga2 e>fc2|B2A2   A2:|
   a2 |f>ea>e f2e<a |f2e<a  f>ea>e|f>ga2 e>fc2|A>ce>c B2
[1 a2 |f>ea>e f2e<a |f2e<a  f>ea>e|f>ga2 e>fc2|B2A2   A2:|
[2 A>B|c2d>c  e>Ac2 |d>ce>A f2e>f |a2e>f e<ac2|B2A2   A2|]

This tune is hexatonic in the first and third parts, and with the seventh
in an inconspicuous descending figure in the second part.  But in the fourth
part, the tune is unambiguously mixolydian heptatonic - the G natural only
occurs once, but on a primary beat.  (Thanks to George Current for pointing
this example out).

